X: 136
T: Ciebie ja chwalić będę, Ciebie przed możnymi
C: Mikołaj Gomółka
%%abc-version 2.0
%%abcx-abcm2ps-target-version 5.9.1 (29 Sep 2008)
%%abc-creator hum2abc beta
%%abcx-conversion-date 2021/10/04 07:59:09
%%abc-edited-by Anna Matuszewska
%%abcx-initial-encoding-date 2020-02-22
%%humdrum-veritas 1233575804
%%humdrum-veritas-data 2141799883
%%linebreak <none>
%%barnumbers 0
L: 1/4
M: C|
N: Derived from pl-wn--sd-xvi-qu-273--138_gomolka-mikolaj--ciebie-ja-chwalic-bede-ciebie-przed-moznymi.krn
%%staves [1 2 3 4]
V: 1
V: 2 clef=alto
V: 3 clef=alto
V: 4 clef=bass
K: F
[V:1] A2A2B3^A [I:setbarnb 3][|] 
[V:2] F2F2F3E [|] 
[V:3] C2C2D3C [|] 
[V:4] F,2F,2B,,3B,, [|] 
[V:1] F2G2A3A [|] 
[V:2] D2CB,A,B,C2 [|] 
[V:3] F2EDCB,A,2 [|] 
[V:4] D,2E,2F,3F,, [|] 
[V:1] G2G2F3F [|] 
[V:2] E2E2D3D [|] 
[V:3] C2C2A,3B, [|] 
[V:4] C,2C,2D,3B,, [|] 
[V:1] E2E2F3F [|] 
[V:2] C2C2D3D [|] 
[V:3] G,2G,2B,3B, [|] 
[V:4] C,2C,2B,,3B,, [|] 
[V:1] DEF2F2E2 [|] 
[V:2] D2C2D2CB, [|] 
[V:3] B,2C2B,2A,G, [|] 
[V:4] B,,2A,,2B,,2C,2 [|] 
[V:1] F8 [|] 
[V:2] A,8 [|] 
[V:3] F,8 [|] 
[V:4] F,,8 [|] 


